src/icons/icons_set_01/022-itineraire.svg

<svg height="50" viewBox="0 0 50 50" width="50" xmlns="http://www.w3.org/2000/svg"><g transform="translate(3.995 12.997143)"><path d="m30.0071429 10.0014286c0-2.97387323 1.1194065-4.98870908 2.9862365-6.10875376 1.1192997-.67154783 2.2249873-.89267484 3.015192-.89267484v2c-.0941855 0-.303116.01790748-.585366.07435479-.4802518.09604578-.9597047.2686406-1.4008705.53332751-1.2590629.75540175-2.015192 2.11636947-2.015192 4.3937463v9.1643838l-.0512942.153919c-.1611206.4834771-.4953587 1.1520594-1.0555439 1.8243456-.9591455 1.1510842-2.2591508 1.8602087-3.8938762 1.8602087-1.6347255 0-2.9347308-.7091245-3.8938763-1.8602087-.5601851-.6722862-.8944232-1.3408685-1.0555439-1.8243456l-.0512941-.153919v-9.1643838l.0135997-.16436094c.0040908-.02455033.0127287-.08935093.0221413-.18820941.0699547-.73471798.019288-1.57033417-.2345916-2.33188233-.4914491-1.47417191-1.6152212-2.31697592-3.802578-2.31697592-2.1873567 0-3.3111289.84280401-3.802578 2.31697592-.2538796.76154816-.3045463 1.59716435-.2345916 2.33188233.0094126.09885848.0180506.16365908.0221413.18820941l.0135997.16436094v9.1643838l-.0512941.153919c-.1611206.4834771-.4953587 1.1520594-1.0555439 1.8243456-.9591455 1.1510842-2.2591508 1.8602087-3.89387624 1.8602087-1.63472545 0-2.93473073-.7091245-3.89387626-1.8602087-.56018515-.6722862-.89442325-1.3408685-1.05554391-1.8243456l-.05129412-.153919v-9.1643838l.01359973-.16436094c.00409075-.02455033.01272867-.08935093.02214128-.18820941.0699547-.73471798.01928801-1.57033417-.23459159-2.33188233-.49144912-1.47417191-1.61522123-2.31697592-3.80257799-2.31697592v-2c3.06389324 0 4.9409247 1.40773171 5.69992201 3.68445265.35574094 1.06709582.42234824 2.16561119.32824323 3.15397426-.00894656.09396364-.01820873.17315849-.02673667.23614839v8.7423519c.02453756.0567074.05697899.1271106.09759174.208349.14318799.2864214.32513493.5737421.54574881.8385039.60357767.7243622 1.36647419 1.1405056 2.35737374 1.1405056s1.75379604-.4161434 2.35737374-1.1405056c.2206139-.2647618.4025608-.5520825.5457488-.8385039.0406128-.0812384.0730542-.1516416.0975917-.208349v-8.7423519c-.0085279-.0629899-.0177901-.14218475-.0267366-.23614839-.094105-.98836307-.0274977-2.08687844.3282432-3.15397426.7589973-2.27672094 2.6360288-3.68445265 5.699922-3.68445265 3.0638933 0 4.9409247 1.40773171 5.699922 3.68445265.355741 1.06709582.4223483 2.16561119.3282433 3.15397426-.0089466.09396364-.0182088.17315849-.0267367.23614839v8.7423519c.0245375.0567074.056979.1271106.0975917.208349.143188.2864214.325135.5737421.5457488.8385039.6035777.7243622 1.3664742 1.1405056 2.3573738 1.1405056.9908995 0 1.753796-.4161434 2.3573737-1.1405056.2206139-.2647618.4025608-.5520825.5457488-.8385039.0406128-.0812384.0730542-.1516416.0975918-.208349z"/><path d="m34.7503061 1.25469388 4.3165096 5.99142857 4.1843067-5.99142857z" transform="matrix(0 -1 1 0 34.750306 43.251122)"/></g></svg>

<?xml version="1.0" encoding="UTF-8"?>
<svg width="50px" height="50px" viewBox="0 0 50 50" version="1.1" xmlns="http://www.w3.org/2000/svg" xmlns:xlink="http://www.w3.org/1999/xlink">
    <!-- Generator: Sketch 52.2 (67145) - http://www.bohemiancoding.com/sketch -->
    <title>022-itineraire</title>
    <desc>Created with Sketch.</desc>
    <g id="022-itineraire" stroke="none" stroke-width="1" fill="none" fill-rule="evenodd">
        <g id="Group" transform="translate(3.995000, 12.997143)" fill="#000000" fill-rule="nonzero">
            <g id="046-itineraire">
                <g id="ICONSET-01">
                    <g id="046-itineraire">
                        <path d="M30.0071429,10.0014286 C30.0071429,7.02755537 31.1265494,5.01271952 32.9933794,3.89267484 C34.1126791,3.22112701 35.2183667,3 36.0085714,3 L36.0085714,5 C35.9143859,5 35.7054554,5.01790748 35.4232054,5.07435479 C34.9429536,5.17040057 34.4635007,5.34299539 34.0223349,5.6076823 C32.763272,6.36308405 32.0071429,7.72405177 32.0071429,10.0014286 L32.0071429,19.1658124 L31.9558487,19.3197314 C31.7947281,19.8032085 31.46049,20.4717908 30.9003048,21.144077 C29.9411593,22.2951612 28.641154,23.0042857 27.0064286,23.0042857 C25.3717031,23.0042857 24.0716978,22.2951612 23.1125523,21.144077 C22.5523672,20.4717908 22.2181291,19.8032085 22.0570084,19.3197314 L22.0057143,19.1658124 L22.0057143,10.0014286 L22.019314,9.83706766 C22.0234048,9.81251733 22.0320427,9.74771673 22.0414553,9.64885825 C22.11141,8.91414027 22.0607433,8.07852408 21.8068637,7.31697592 C21.3154146,5.84280401 20.1916425,5 18.0042857,5 C15.816929,5 14.6931568,5.84280401 14.2017077,7.31697592 C13.9478281,8.07852408 13.8971614,8.91414027 13.9671161,9.64885825 C13.9765287,9.74771673 13.9851667,9.81251733 13.9892574,9.83706766 L14.0028571,10.0014286 L14.0028571,19.1658124 L13.951563,19.3197314 C13.7904424,19.8032085 13.4562043,20.4717908 12.8960191,21.144077 C11.9368736,22.2951612 10.6368683,23.0042857 9.00214286,23.0042857 C7.36741741,23.0042857 6.06741213,22.2951612 5.1082666,21.144077 C4.54808145,20.4717908 4.21384335,19.8032085 4.05272269,19.3197314 L4.00142857,19.1658124 L4.00142857,10.0014286 L4.0150283,9.83706766 C4.01911905,9.81251733 4.02775697,9.74771673 4.03716958,9.64885825 C4.10712428,8.91414027 4.05645759,8.07852408 3.80257799,7.31697592 C3.31112887,5.84280401 2.18735676,5 0,5 L0,3 C3.06389324,3 4.9409247,4.40773171 5.69992201,6.68445265 C6.05566295,7.75154847 6.12227025,8.85006384 6.02816524,9.83842691 C6.01921868,9.93239055 6.00995651,10.0115854 6.00142857,10.0745753 L6.00142857,18.8169272 C6.02596613,18.8736346 6.05840756,18.9440378 6.09902031,19.0252762 C6.2422083,19.3116976 6.42415524,19.5990183 6.64476912,19.8637801 C7.24834679,20.5881423 8.01124331,21.0042857 9.00214286,21.0042857 C9.99304241,21.0042857 10.7559389,20.5881423 11.3595166,19.8637801 C11.5801305,19.5990183 11.7620774,19.3116976 11.9052654,19.0252762 C11.9458782,18.9440378 11.9783196,18.8736346 12.0028571,18.8169272 L12.0028571,10.0745753 C11.9943292,10.0115854 11.985067,9.93239055 11.9761205,9.83842691 C11.8820155,8.85006384 11.9486228,7.75154847 12.3043637,6.68445265 C13.063361,4.40773171 14.9403925,3 18.0042857,3 C21.068179,3 22.9452104,4.40773171 23.7042077,6.68445265 C24.0599487,7.75154847 24.126556,8.85006384 24.032451,9.83842691 C24.0235044,9.93239055 24.0142422,10.0115854 24.0057143,10.0745753 L24.0057143,18.8169272 C24.0302518,18.8736346 24.0626933,18.9440378 24.103306,19.0252762 C24.246494,19.3116976 24.428441,19.5990183 24.6490548,19.8637801 C25.2526325,20.5881423 26.015529,21.0042857 27.0064286,21.0042857 C27.9973281,21.0042857 28.7602246,20.5881423 29.3638023,19.8637801 C29.5844162,19.5990183 29.7663631,19.3116976 29.9095511,19.0252762 C29.9501639,18.9440378 29.9826053,18.8736346 30.0071429,18.8169272 L30.0071429,10.0014286 Z" id="Shape"></path>
                        <polygon id="Path-4" transform="translate(39.000714, 4.250408) rotate(-90.000000) translate(-39.000714, -4.250408) " points="34.7503061 1.25469388 39.0668157 7.24612245 43.2511224 1.25469388"></polygon>
                    </g>
                </g>
            </g>
        </g>
    </g>
</svg>
